X: 1
T: Kev\"atvalssi
T: Spring waltz
C: Otto Hotakainen
R: waltz
O: Finland
S: Bruce Sagan's box.com collection
Z: 2022 John Chambers <jc:trillian.mit.edu>
M: 3/4
L: 1/8
K: Bb
% %continueall
"^A"|:\
"Bb"DE FE GF | BA cB ed | f4 B2 | d6 || "Bb" DE FE GF | BA cB dc | "F"e4 A2 | c6 ||
F2 A2 c2- | "Eb"c2 ed ed | "F"e4 A2 | c2 ed ed || f6- | "F7"fe de cd | "Bb"B6- |[1 B4 D2 :|[2 "Bb"B4 |]
"^B"|: f2 |\
"Bb"f2 gf =ef | ba gf ec | B4 D2 | F6 || B4 AB | Bc de fd | "F"c6- | c2 A2 F2 ||
"Eb"e4 de | g2 e2 c2 | "F"A6 | "Eb"G6 || "F"F6 | "F7"FG AB ce | "Bb"d6- | d4  f2 ||
"Bb"f2 gf =ef | ba gf ec | B4 D2 | F6 || B4 AB | Bc de fd | "F"c6- | c2 ed ed ||
"Eb"e4 GE | "Cm"G2 d^c dc | "Bb"d4 FD | F2 BA BA || B4 F2 | "F7"FE DE Fd | "Bb"B6- | B2 ed ed ||
"Eb"e4 GE | "Cm"G2 d^c dc | "Bb"d4 FD | F2 BA BA || B4 F2 | "F7"FE DE Fd | "Bb"B6- | B4 :|
"^C"|: f2 |\
"Bb"f2 d2 B2 | F2 G2 F2 | "F7"A6- | A2 F2 F2 || "Eb"e2 c2 A2 | "F7"F2 c2^c2 | "Bb"d6- | d4 f2 |
"Bb"f2 d2 B2 | F2 b2 a2 | "Eb"a2 g3 ^f | "Cm"g2 ba g2 || "Bb"f2 e2 F2 | "F7"d2 c2 F2 | "Bb"B6- | B4 |]
"^A"[| D2 |\
"Bb" DE FE GF | BA cB ed | f4 B2 | d6 || "Bb" DE FE GF | BA cB dc | "F"e4 A2 | c6 ||
F2 A2 c2- | "Eb"c2 ed ed | "F"e4 A2 | c2 ed ed || f6- | "F7"fe de cd | "Bb"B6- | B4 |]
